!!!SOCIAL_FUNCTION:	songs with hunting dance
!!!PDT:	1956
!!!OTL: No_32_Cypress_Swamp_Hunting_Dance_Song_(g).krn
!!!LANG: Non-Tone
!!!LING_GROUP: Muskogean
!!!REG: Florida
**kern
*staff1
=1-
*clefF4
*k[b-e-a-]
*M4/8
4r
8.r
16B-\
=2
4B-\
16B-\LL
16B-\JJ
16c\LL
16c\JJ
=3||
*M5/8
8B-\L
8B-\
8A-\
8G\
8E-\J
=4||
*M4/8
4G\
16G\LL
16G\JJ
16B-\LL
16B-\JJ
=5||
*M3/8
16G\LK
8.G\
16G\L
16E-\JJ
=6
16G\LL
16E-\J
8E-\
8E-\J
=7||
*M5/8
16B-\LL
16G\
16G\
16G\
16G\
16E-\J
8E-\
8E-\J
=8
8BB-/L
16BB-/Jk
16r
16G\LL
16E-\J
8E-\
8E-\J
=9
16B-\LL
16G\
16F\
16F\
16G\
16E-\J
8E-\
8E-\J
=10||
*M3/8
8BB-/L
16BB-/Jk
16r
16G\LL
16E-\JJ
=11
4E-\
8r
==
*-
